papirus/32x32/apps/mendeley-desktop.svg

<?xml version="1.0" encoding="UTF-8" standalone="no"?>
<svg
   xmlns:dc="http://purl.org/dc/elements/1.1/"
   xmlns:cc="http://creativecommons.org/ns#"
   xmlns:rdf="http://www.w3.org/1999/02/22-rdf-syntax-ns#"
   xmlns:svg="http://www.w3.org/2000/svg"
   xmlns="http://www.w3.org/2000/svg"
   xmlns:sodipodi="http://sodipodi.sourceforge.net/DTD/sodipodi-0.dtd"
   xmlns:inkscape="http://www.inkscape.org/namespaces/inkscape"
   version="1.1"
   id="svg4261"
   viewBox="0 0 32 32.000001"
   height="32"
   width="32"
   inkscape:version="0.91 r13725"
   sodipodi:docname="mendeley-desktop.svg">
  <sodipodi:namedview
     pagecolor="#ffffff"
     bordercolor="#666666"
     borderopacity="1"
     objecttolerance="10"
     gridtolerance="10"
     guidetolerance="10"
     inkscape:pageopacity="0"
     inkscape:pageshadow="2"
     inkscape:window-width="1600"
     inkscape:window-height="849"
     id="namedview13"
     showgrid="false"
     inkscape:zoom="8.08"
     inkscape:cx="24"
     inkscape:cy="15.465149"
     inkscape:window-x="0"
     inkscape:window-y="0"
     inkscape:window-maximized="1"
     inkscape:current-layer="svg4261" />
  <defs
     id="defs4263" />
  <metadata
     id="metadata4266">
    <rdf:RDF>
      <cc:Work
         rdf:about="">
        <dc:format>image/svg+xml</dc:format>
        <dc:type
           rdf:resource="http://purl.org/dc/dcmitype/StillImage" />
        <dc:title></dc:title>
      </cc:Work>
    </rdf:RDF>
  </metadata>
  <rect
     style="opacity:1;fill:#be212e;fill-opacity:1;stroke:none;stroke-width:0.1;stroke-miterlimit:4;stroke-dasharray:none;stroke-opacity:1"
     id="rect5010"
     width="28"
     height="28"
     x="2"
     y="2"
     rx="1.4736843" />
  <path
     id="path4316"
     d="m 10.347656,10.001953 c -0.8704673,0.02775 -1.7113984,0.42979 -2.3554685,1.039063 -0.6545595,0.619192 -1.1237127,1.470128 -1.21875,2.384765 -0.04752,0.457352 -0.00148,0.925191 0.1445313,1.359375 0.1459947,0.434253 0.3928803,0.833608 0.7207031,1.142578 0.3866341,0.3644 0.8704017,0.593868 1.3144531,0.878907 0.2220261,0.142555 0.4352305,0.301708 0.6191406,0.49414 0.1839094,0.192431 0.3376704,0.420999 0.421875,0.677735 0.074917,0.228434 0.092043,0.47412 0.058593,0.71289 -0.03345,0.238839 -0.1182884,0.469741 -0.2421871,0.673828 -0.2477954,0.408239 -0.6474814,0.704358 -1.0859375,0.863282 -0.5085515,0.184315 -1.0684183,0.193811 -1.5585938,0.425781 -0.3878787,0.183553 -0.7144842,0.503347 -0.9179687,0.892578 -0.2034821,0.389232 -0.2838335,0.847098 -0.234375,1.287109 0.058112,0.51701 0.2973563,1.007956 0.6542969,1.373047 0.3569399,0.365093 0.8291965,0.603046 1.3242187,0.681641 0.7258921,0.115223 1.5016211,-0.125435 2.0292965,-0.65625 0.263836,-0.265407 0.463823,-0.597651 0.576172,-0.960938 0.112348,-0.363358 0.135502,-0.756819 0.0625,-1.130859 -0.05574,-0.285593 -0.163967,-0.556542 -0.265625,-0.828125 -0.101656,-0.271649 -0.198148,-0.549533 -0.222656,-0.839844 -0.04327,-0.512572 0.14513,-1.034089 0.472656,-1.419922 0.327529,-0.385833 0.786405,-0.639713 1.269531,-0.751953 0.311715,-0.07242 0.636359,-0.08933 0.951172,-0.0332 0.314815,0.05619 0.619912,0.184981 0.875,0.384766 0.255088,0.199784 0.459014,0.470823 0.572266,0.78125 0.113254,0.310429 0.133278,0.660039 0.04297,0.978515 -0.0925,0.326174 -0.29079,0.607025 -0.492188,0.875 -0.201395,0.267969 -0.413525,0.537054 -0.533203,0.853516 -0.131982,0.348998 -0.145118,0.74239 -0.05469,1.105469 0.09043,0.363011 0.28096,0.69479 0.53125,0.964844 0.27689,0.298776 0.628418,0.522163 1.009765,0.644531 C 15.197755,24.977906 15.587215,25 15.986328,25 c 0.399115,0 0.815917,-0.0221 1.197266,-0.144531 0.381347,-0.122368 0.732874,-0.345755 1.009765,-0.644531 0.250289,-0.270054 0.440825,-0.601833 0.53125,-0.964844 0.09042,-0.363079 0.07729,-0.756471 -0.05469,-1.105469 -0.119679,-0.316463 -0.331806,-0.585543 -0.533203,-0.853516 -0.201397,-0.267975 -0.399697,-0.548826 -0.492188,-0.875 -0.09031,-0.318476 -0.07028,-0.668086 0.04297,-0.978515 0.113252,-0.310427 0.317177,-0.581466 0.572266,-0.78125 0.255088,-0.199785 0.560185,-0.328576 0.875,-0.384766 0.314813,-0.05613 0.639457,-0.03921 0.951172,0.0332 0.483125,0.11224 0.942004,0.36612 1.269531,0.751953 0.327526,0.385833 0.515929,0.90735 0.472656,1.419922 -0.0245,0.290311 -0.120999,0.568195 -0.222656,0.839844 -0.101655,0.271586 -0.20988,0.542532 -0.265625,0.828125 -0.07299,0.37404 -0.04985,0.767501 0.0625,1.130859 0.112348,0.363287 0.312336,0.695531 0.576172,0.960938 0.527675,0.530815 1.303404,0.771473 2.029296,0.65625 0.495022,-0.0786 0.967279,-0.316548 1.324219,-0.681641 0.35694,-0.365091 0.596183,-0.856037 0.654297,-1.373047 0.04946,-0.440011 -0.03089,-0.897877 -0.234375,-1.287109 -0.203485,-0.389231 -0.530089,-0.709025 -0.917969,-0.892578 -0.490175,-0.23197 -1.050042,-0.241466 -1.558593,-0.425781 -0.438456,-0.158924 -0.838142,-0.455043 -1.085938,-0.863282 -0.123899,-0.204087 -0.208738,-0.434989 -0.242187,-0.673828 -0.03345,-0.23877 -0.01633,-0.484456 0.05859,-0.71289 0.0842,-0.256736 0.237965,-0.485304 0.421875,-0.677735 0.183909,-0.192432 0.397114,-0.351585 0.619141,-0.49414 0.444052,-0.285039 0.927819,-0.514507 1.314453,-0.878907 0.327823,-0.30897 0.574708,-0.708325 0.720703,-1.142578 0.145987,-0.434184 0.192048,-0.902023 0.144531,-1.359375 -0.09504,-0.914637 -0.564191,-1.765573 -1.21875,-2.384765 -0.644069,-0.609273 -1.485,-1.011314 -2.355468,-1.039063 -0.435233,-0.013875 -0.872241,0.06432 -1.273438,0.240235 -0.401195,0.17592 -0.765434,0.450037 -1.042968,0.798828 -0.318174,0.399845 -0.518052,0.884514 -0.701172,1.367187 -0.18312,0.482742 -0.355532,0.976725 -0.632813,1.408203 C 17.544699,14.527929 16.8232,15.203125 16,15.203125 c -0.823199,0 -1.5447,-0.675196 -2.001953,-1.386719 C 13.720763,13.384928 13.548354,12.890945 13.365234,12.408203 13.182114,11.92553 12.982236,11.440862 12.664062,11.041016 12.386529,10.692225 12.02229,10.418108 11.621094,10.242188 11.219899,10.066266 10.782889,9.9880794 10.347656,10.001953 Z M 16,16 a 1.0000085,1.0000087 0 0 1 1,1 1.0000085,1.0000087 0 0 1 -1,1 1.0000085,1.0000087 0 0 1 -1,-1 1.0000085,1.0000087 0 0 1 1,-1 z"
     style="opacity:0.2;fill:#000000;fill-opacity:1;stroke:none;stroke-width:0.07407407;stroke-miterlimit:4;stroke-dasharray:none;stroke-opacity:1"
     inkscape:connector-curvature="0" />
  <path
     style="opacity:1;fill:#ffffff;fill-opacity:1;stroke:none;stroke-width:0.07407407;stroke-miterlimit:4;stroke-dasharray:none;stroke-opacity:1"
     d="M 10.347656 9.0019531 C 9.4771887 9.0297031 8.6362576 9.4317434 7.9921875 10.041016 C 7.337628 10.660208 6.8684748 11.511144 6.7734375 12.425781 C 6.7259175 12.883133 6.771954 13.350972 6.9179688 13.785156 C 7.0639635 14.219409 7.3108491 14.618764 7.6386719 14.927734 C 8.025306 15.292134 8.5090736 15.521602 8.953125 15.806641 C 9.1751511 15.949196 9.3883555 16.108349 9.5722656 16.300781 C 9.756175 16.493212 9.909936 16.72178 9.9941406 16.978516 C 10.069058 17.20695 10.086184 17.452636 10.052734 17.691406 C 10.019284 17.930245 9.9344456 18.161147 9.8105469 18.365234 C 9.5627515 18.773473 9.1630655 19.069592 8.7246094 19.228516 C 8.2160579 19.412831 7.6561911 19.422327 7.1660156 19.654297 C 6.7781369 19.83785 6.4515314 20.157644 6.2480469 20.546875 C 6.0445648 20.936107 5.9642134 21.393973 6.0136719 21.833984 C 6.0717839 22.350994 6.3110282 22.84194 6.6679688 23.207031 C 7.0249087 23.572124 7.4971653 23.810077 7.9921875 23.888672 C 8.7180796 24.003895 9.4938086 23.763237 10.021484 23.232422 C 10.28532 22.967015 10.485307 22.634771 10.597656 22.271484 C 10.710004 21.908126 10.733158 21.514665 10.660156 21.140625 C 10.604416 20.855032 10.496189 20.584083 10.394531 20.3125 C 10.292875 20.040851 10.196383 19.762967 10.171875 19.472656 C 10.128605 18.960084 10.317005 18.438567 10.644531 18.052734 C 10.97206 17.666901 11.430936 17.413021 11.914062 17.300781 C 12.225777 17.228361 12.550421 17.211448 12.865234 17.267578 C 13.180049 17.323768 13.485146 17.452559 13.740234 17.652344 C 13.995322 17.852128 14.199248 18.123167 14.3125 18.433594 C 14.425754 18.744023 14.445778 19.093633 14.355469 19.412109 C 14.262969 19.738283 14.064679 20.019134 13.863281 20.287109 C 13.661886 20.555078 13.449756 20.824163 13.330078 21.140625 C 13.198096 21.489623 13.18496 21.883015 13.275391 22.246094 C 13.365821 22.609105 13.556351 22.940884 13.806641 23.210938 C 14.083531 23.509714 14.435059 23.733101 14.816406 23.855469 C 15.197755 23.977906 15.587215 24 15.986328 24 C 16.385443 24 16.802245 23.977905 17.183594 23.855469 C 17.564941 23.733101 17.916468 23.509714 18.193359 23.210938 C 18.443648 22.940884 18.634184 22.609105 18.724609 22.246094 C 18.815029 21.883015 18.801902 21.489623 18.669922 21.140625 C 18.550243 20.824162 18.338116 20.555082 18.136719 20.287109 C 17.935322 20.019134 17.737022 19.738283 17.644531 19.412109 C 17.554221 19.093633 17.57425 18.744023 17.6875 18.433594 C 17.800752 18.123167 18.004677 17.852128 18.259766 17.652344 C 18.514854 17.452559 18.819951 17.323768 19.134766 17.267578 C 19.449579 17.211448 19.774223 17.228371 20.085938 17.300781 C 20.569063 17.413021 21.027942 17.666901 21.355469 18.052734 C 21.682995 18.438567 21.871398 18.960084 21.828125 19.472656 C 21.803625 19.762967 21.707126 20.040851 21.605469 20.3125 C 21.503814 20.584086 21.395589 20.855032 21.339844 21.140625 C 21.266854 21.514665 21.289994 21.908126 21.402344 22.271484 C 21.514692 22.634771 21.71468 22.967015 21.978516 23.232422 C 22.506191 23.763237 23.28192 24.003895 24.007812 23.888672 C 24.502834 23.810072 24.975091 23.572124 25.332031 23.207031 C 25.688971 22.84194 25.928214 22.350994 25.986328 21.833984 C 26.035788 21.393973 25.955436 20.936107 25.751953 20.546875 C 25.548468 20.157644 25.221864 19.83785 24.833984 19.654297 C 24.343809 19.422327 23.783942 19.412831 23.275391 19.228516 C 22.836935 19.069592 22.437249 18.773473 22.189453 18.365234 C 22.065554 18.161147 21.980715 17.930245 21.947266 17.691406 C 21.913816 17.452636 21.930939 17.20695 22.005859 16.978516 C 22.090059 16.72178 22.243824 16.493212 22.427734 16.300781 C 22.611643 16.108349 22.824848 15.949196 23.046875 15.806641 C 23.490927 15.521602 23.974694 15.292134 24.361328 14.927734 C 24.689151 14.618764 24.936036 14.219409 25.082031 13.785156 C 25.228018 13.350972 25.274079 12.883133 25.226562 12.425781 C 25.131522 11.511144 24.662371 10.660208 24.007812 10.041016 C 23.363743 9.4317434 22.522812 9.0297018 21.652344 9.0019531 C 21.217111 8.9880781 20.780103 9.0662696 20.378906 9.2421875 C 19.977711 9.4181081 19.613472 9.6922252 19.335938 10.041016 C 19.017764 10.440861 18.817886 10.92553 18.634766 11.408203 C 18.451646 11.890945 18.279234 12.384928 18.001953 12.816406 C 17.544699 13.527929 16.8232 14.203125 16 14.203125 C 15.176801 14.203125 14.4553 13.527929 13.998047 12.816406 C 13.720763 12.384928 13.548354 11.890945 13.365234 11.408203 C 13.182114 10.92553 12.982236 10.440862 12.664062 10.041016 C 12.386529 9.6922252 12.02229 9.4181081 11.621094 9.2421875 C 11.219899 9.0662661 10.782889 8.9880794 10.347656 9.0019531 z M 16 15 A 1.0000085 1.0000087 0 0 1 17 16 A 1.0000085 1.0000087 0 0 1 16 17 A 1.0000085 1.0000087 0 0 1 15 16 A 1.0000085 1.0000087 0 0 1 16 15 z "
     id="path4313" />
  <path
     style="opacity:0.2;fill:#ffffff;fill-opacity:1;stroke:none;stroke-width:0.1;stroke-miterlimit:4;stroke-dasharray:none;stroke-opacity:1"
     d="M 3.4746094 2 C 2.6581883 2 2 2.6581883 2 3.4746094 L 2 4.4746094 C 2 3.6581883 2.6581883 3 3.4746094 3 L 28.525391 3 C 29.341812 3 30 3.6581883 30 4.4746094 L 30 3.4746094 C 30 2.6581883 29.341812 2 28.525391 2 L 3.4746094 2 z "
     id="rect4301" />
  <path
     style="opacity:0.3;fill:#000000;fill-opacity:1;stroke:none;stroke-width:0.1;stroke-miterlimit:4;stroke-dasharray:none;stroke-opacity:1"
     d="M 2 27.525391 L 2 28.525391 C 2 29.341812 2.6581883 30 3.4746094 30 L 28.525391 30 C 29.341812 30 30 29.341812 30 28.525391 L 30 27.525391 C 30 28.341812 29.341812 29 28.525391 29 L 3.4746094 29 C 2.6581883 29 2 28.341812 2 27.525391 z "
     id="rect4306" />
</svg>

<?xml version="1.0" encoding="UTF-8" standalone="no"?>
<svg id="svg4261" xmlns:rdf="http://www.w3.org/1999/02/22-rdf-syntax-ns#" xmlns="http://www.w3.org/2000/svg" height="32" width="32" version="1.1" xmlns:cc="http://creativecommons.org/ns#" viewBox="0 0 32 32.000001" xmlns:dc="http://purl.org/dc/elements/1.1/">
 <metadata id="metadata4266">
  <rdf:RDF>
   <cc:Work rdf:about="">
    <dc:format>image/svg+xml</dc:format>
    <dc:type rdf:resource="http://purl.org/dc/dcmitype/StillImage"/>
    <dc:title/>
   </cc:Work>
  </rdf:RDF>
 </metadata>
 <rect id="rect5010" rx="1.4737" height="28" width="28" y="2" x="2" fill="#be212e"/>
 <path id="path4316" opacity=".2" d="m10.348 10.002c-0.87047 0.02775-1.7114 0.42979-2.3555 1.0391-0.65456 0.61919-1.1237 1.4701-1.2188 2.3848-0.04752 0.45735-0.00148 0.92519 0.14453 1.3594 0.14599 0.43425 0.39288 0.83361 0.7207 1.1426 0.38663 0.3644 0.8704 0.59387 1.3145 0.87891 0.22203 0.14256 0.43523 0.30171 0.61914 0.49414s0.33767 0.421 0.42188 0.67774c0.074917 0.22843 0.092043 0.47412 0.058593 0.71289-0.03345 0.23884-0.11829 0.46974-0.24219 0.67383-0.2478 0.40824-0.64748 0.70436-1.0859 0.86328-0.50855 0.18432-1.0684 0.19381-1.5586 0.42578-0.38788 0.18355-0.71448 0.50335-0.91797 0.89258-0.20348 0.38923-0.28383 0.8471-0.23438 1.2871 0.058112 0.51701 0.29736 1.008 0.6543 1.373 0.35694 0.36509 0.8292 0.60305 1.3242 0.68164 0.72589 0.11522 1.5016-0.12544 2.0293-0.65625 0.26384-0.26541 0.46382-0.59765 0.57617-0.96094 0.11235-0.36336 0.1355-0.75682 0.0625-1.1309-0.05574-0.28559-0.16397-0.55654-0.26562-0.82812-0.10166-0.27165-0.19815-0.54953-0.22266-0.83984-0.04327-0.51257 0.14513-1.0341 0.47266-1.4199 0.32753-0.38583 0.7864-0.63971 1.2695-0.75195 0.31172-0.07242 0.63636-0.08933 0.95117-0.0332 0.31482 0.05619 0.61991 0.18498 0.875 0.38477 0.25509 0.19978 0.45901 0.47082 0.57227 0.78125 0.11325 0.31043 0.13328 0.66004 0.04297 0.97852-0.0925 0.32617-0.29079 0.60702-0.49219 0.875-0.2014 0.26797-0.41352 0.53705-0.5332 0.85352-0.13198 0.349-0.14512 0.74239-0.05469 1.1055 0.09043 0.36301 0.28096 0.69479 0.53125 0.96484 0.27689 0.29878 0.62842 0.52216 1.0098 0.64453 0.381 0.12 0.77 0.142 1.169 0.142 0.39912 0 0.81592-0.0221 1.1973-0.14453 0.38135-0.12237 0.73287-0.34576 1.0098-0.64453 0.25029-0.27005 0.44082-0.60183 0.53125-0.96484 0.09042-0.36308 0.07729-0.75647-0.05469-1.1055-0.11968-0.31646-0.33181-0.58554-0.5332-0.85352-0.2014-0.26798-0.3997-0.54883-0.49219-0.875-0.09031-0.31848-0.07028-0.66809 0.04297-0.97852s0.31718-0.58147 0.57227-0.78125 0.56018-0.32858 0.875-0.38477c0.31481-0.05613 0.63946-0.03921 0.95117 0.0332 0.48312 0.11224 0.942 0.36612 1.2695 0.75195 0.32753 0.38583 0.51593 0.90735 0.47266 1.4199-0.0245 0.29031-0.121 0.5682-0.22266 0.83984-0.10166 0.27159-0.20988 0.54253-0.26562 0.82812-0.07299 0.37404-0.04985 0.7675 0.0625 1.1309 0.11235 0.36329 0.31234 0.69553 0.57617 0.96094 0.52768 0.53082 1.3034 0.77147 2.0293 0.65625 0.49502-0.0786 0.96728-0.31655 1.3242-0.68164 0.35694-0.36509 0.59618-0.85604 0.6543-1.373 0.04946-0.44001-0.03089-0.89788-0.23438-1.2871-0.20348-0.38923-0.53009-0.70902-0.91797-0.89258-0.49018-0.23197-1.05-0.24147-1.5586-0.42578-0.43846-0.15892-0.83814-0.45504-1.0859-0.86328-0.1239-0.20409-0.20874-0.43499-0.24219-0.67383-0.03345-0.23877-0.01633-0.48446 0.05859-0.71289 0.0842-0.25674 0.23796-0.4853 0.42188-0.67774 0.18391-0.19243 0.39711-0.35158 0.61914-0.49414 0.44405-0.28504 0.92782-0.51451 1.3145-0.87891 0.32782-0.30897 0.57471-0.70832 0.7207-1.1426 0.14599-0.43418 0.19205-0.90202 0.14453-1.3594-0.09504-0.91464-0.56419-1.7656-1.2188-2.3848-0.64407-0.60927-1.485-1.0113-2.3555-1.0391-0.43523-0.013875-0.87224 0.06432-1.2734 0.24024-0.4012 0.17592-0.76543 0.45004-1.043 0.79883-0.31817 0.39984-0.51805 0.88451-0.70117 1.3672-0.18312 0.48274-0.35553 0.97672-0.63281 1.4082-0.457 0.712-1.179 1.387-2.002 1.387-0.8232 0-1.5447-0.6752-2.002-1.3867-0.277-0.431-0.45-0.925-0.633-1.408-0.183-0.482-0.383-0.967-0.701-1.367-0.277-0.349-0.642-0.623-1.043-0.799s-0.838-0.2539-1.273-0.24zm5.652 5.998a1 1 0 0 1 1 1 1 1 0 0 1 -1 1 1 1 0 0 1 -1 -1 1 1 0 0 1 1 -1z"/>
 <path id="path4313" d="m10.348 9.002c-0.8708 0.0277-1.7117 0.4297-2.3558 1.039-0.6546 0.619-1.1237 1.47-1.2188 2.385-0.0475 0.457-0.0014 0.925 0.1446 1.359s0.3928 0.834 0.7207 1.143c0.3866 0.364 0.8704 0.594 1.3144 0.879 0.2221 0.142 0.4353 0.301 0.6192 0.494 0.1839 0.192 0.3376 0.421 0.4218 0.678 0.0749 0.228 0.0919 0.474 0.0589 0.712-0.034 0.239-0.1186 0.47-0.2425 0.674-0.2477 0.408-0.6474 0.705-1.0859 0.864-0.5085 0.184-1.0684 0.193-1.5586 0.425-0.3879 0.184-0.7145 0.504-0.918 0.893-0.2034 0.389-0.2838 0.847-0.2343 1.287 0.0581 0.517 0.2973 1.008 0.6543 1.373 0.3569 0.365 0.8292 0.603 1.3242 0.682 0.7259 0.115 1.5016-0.126 2.0288-0.657 0.264-0.265 0.464-0.597 0.577-0.961 0.112-0.363 0.135-0.756 0.062-1.13-0.056-0.286-0.164-0.557-0.265-0.829-0.102-0.271-0.199-0.549-0.223-0.839-0.043-0.513 0.145-1.034 0.473-1.42 0.327-0.386 0.786-0.64 1.269-0.752 0.312-0.073 0.636-0.09 0.951-0.033 0.315 0.056 0.62 0.185 0.875 0.384 0.255 0.2 0.459 0.471 0.572 0.782 0.114 0.31 0.134 0.66 0.043 0.978-0.092 0.326-0.29 0.607-0.492 0.875-0.201 0.268-0.413 0.537-0.533 0.854-0.132 0.349-0.145 0.742-0.055 1.105 0.091 0.363 0.281 0.695 0.532 0.965 0.277 0.299 0.628 0.522 1.009 0.644 0.382 0.123 0.771 0.145 1.17 0.145s0.816-0.022 1.198-0.145c0.381-0.122 0.732-0.345 1.009-0.644 0.251-0.27 0.441-0.602 0.532-0.965 0.09-0.363 0.077-0.756-0.055-1.105-0.12-0.317-0.332-0.586-0.533-0.854-0.202-0.268-0.4-0.549-0.492-0.875-0.091-0.318-0.071-0.668 0.043-0.978 0.113-0.311 0.317-0.582 0.572-0.782 0.255-0.199 0.56-0.328 0.875-0.384 0.315-0.057 0.639-0.04 0.951 0.033 0.483 0.112 0.942 0.366 1.269 0.752 0.328 0.386 0.516 0.907 0.473 1.42-0.024 0.29-0.121 0.568-0.223 0.839-0.101 0.272-0.209 0.543-0.265 0.829-0.073 0.374-0.05 0.767 0.062 1.13 0.113 0.364 0.313 0.696 0.577 0.961 0.527 0.531 1.303 0.772 2.029 0.657 0.495-0.079 0.967-0.317 1.324-0.682s0.596-0.856 0.654-1.373c0.05-0.44-0.031-0.898-0.234-1.287-0.204-0.389-0.53-0.709-0.918-0.893-0.49-0.232-1.05-0.241-1.559-0.425-0.438-0.159-0.838-0.456-1.086-0.864-0.123-0.204-0.208-0.435-0.242-0.674-0.033-0.238-0.016-0.484 0.059-0.712 0.084-0.257 0.238-0.486 0.422-0.678 0.184-0.193 0.397-0.352 0.619-0.494 0.444-0.285 0.928-0.515 1.314-0.879 0.328-0.309 0.575-0.709 0.721-1.143s0.192-0.902 0.145-1.359c-0.095-0.915-0.565-1.766-1.219-2.385-0.644-0.6093-1.485-1.0113-2.356-1.039-0.435-0.0139-0.872 0.0643-1.273 0.2402s-0.766 0.45-1.043 0.7988c-0.318 0.4-0.518 0.885-0.701 1.367-0.183 0.483-0.356 0.977-0.633 1.408-0.457 0.712-1.179 1.387-2.002 1.387s-1.545-0.675-2.002-1.387c-0.277-0.431-0.45-0.925-0.633-1.408-0.183-0.482-0.383-0.967-0.701-1.367-0.277-0.3488-0.642-0.6229-1.043-0.7988s-0.838-0.2541-1.273-0.2402zm5.652 5.998a1 1 0 0 1 1 1 1 1 0 0 1 -1 1 1 1 0 0 1 -1 -1 1 1 0 0 1 1 -1z" fill="#fff"/>
 <path id="rect4301" opacity=".2" d="m3.4746 2c-0.8164 0-1.4746 0.6582-1.4746 1.4746v1c0-0.8164 0.6582-1.4746 1.4746-1.4746h25.05c0.817 0 1.475 0.6582 1.475 1.4746v-1c0-0.8164-0.658-1.4746-1.475-1.4746h-25.05z" fill="#fff"/>
 <path id="rect4306" opacity=".2" d="m2 28.525v1c0 0.817 0.6582 1.475 1.4746 1.475h25.05c0.817 0 1.475-0.658 1.475-1.475v-1c0 0.817-0.658 1.475-1.475 1.475h-25.05c-0.8168 0-1.475-0.658-1.475-1.475z"/>
</svg>
